usr/share/icons/biglinux-icons-material/scalable/places/black-folder.svg

<?xml version="1.0" encoding="UTF-8" standalone="no"?>
<svg
   width="24"
   height="24"
   viewBox="0 0 24 24"
   fill="none"
   version="1.1"
   id="svg17"
   sodipodi:docname="black-folder.svg"
   inkscape:version="1.3 (0e150ed6c4, 2023-07-21)"
   xmlns:inkscape="http://www.inkscape.org/namespaces/inkscape"
   xmlns:sodipodi="http://sodipodi.sourceforge.net/DTD/sodipodi-0.dtd"
   xmlns="http://www.w3.org/2000/svg"
   xmlns:svg="http://www.w3.org/2000/svg">
  <sodipodi:namedview
     id="namedview17"
     pagecolor="#ffffff"
     bordercolor="#000000"
     borderopacity="0.25"
     inkscape:showpageshadow="2"
     inkscape:pageopacity="0.0"
     inkscape:pagecheckerboard="0"
     inkscape:deskcolor="#d1d1d1"
     inkscape:zoom="19.25"
     inkscape:cx="6.8831169"
     inkscape:cy="11.974026"
     inkscape:window-width="2560"
     inkscape:window-height="998"
     inkscape:window-x="0"
     inkscape:window-y="0"
     inkscape:window-maximized="1"
     inkscape:current-layer="svg17" />
  <defs
     id="defs17">
    <linearGradient
       id="paint0_linear_201_2"
       x1="23"
       y1="0.999999"
       x2="1"
       y2="12"
       gradientUnits="userSpaceOnUse">
      <stop
         stop-color="#444444"
         id="stop5" />
      <stop
         offset="1"
         id="stop6" />
    </linearGradient>
    <linearGradient
       id="paint1_linear_201_2"
       x1="21"
       y1="4"
       x2="3"
       y2="4"
       gradientUnits="userSpaceOnUse">
      <stop
         stop-opacity="0.5"
         id="stop7" />
      <stop
         offset="0.890123"
         id="stop8" />
      <stop
         offset="1"
         stop-opacity="0"
         id="stop9" />
    </linearGradient>
    <linearGradient
       id="paint2_linear_201_2"
       x1="12"
       y1="3"
       x2="11.5"
       y2="8"
       gradientUnits="userSpaceOnUse">
      <stop
         stop-color="#DDDDDD"
         id="stop10" />
      <stop
         offset="1"
         stop-color="#CCCCCC"
         stop-opacity="0"
         id="stop11" />
    </linearGradient>
    <linearGradient
       id="paint3_linear_201_2"
       x1="23"
       y1="9"
       x2="1.01236"
       y2="9.52141"
       gradientUnits="userSpaceOnUse">
      <stop
         stop-opacity="0.5"
         id="stop12" />
      <stop
         offset="1"
         id="stop13" />
    </linearGradient>
    <linearGradient
       id="paint4_linear_201_2"
       x1="23"
       y1="5.4"
       x2="1.42949"
       y2="23.5115"
       gradientUnits="userSpaceOnUse">
      <stop
         stop-color="#555555"
         id="stop14" />
      <stop
         offset="1"
         stop-color="#181818"
         id="stop15" />
    </linearGradient>
    <linearGradient
       id="paint5_linear_201_2"
       x1="15"
       y1="5.5"
       x2="5.5"
       y2="19.5"
       gradientUnits="userSpaceOnUse">
      <stop
         stop-color="#999999"
         id="stop16" />
      <stop
         offset="1"
         id="stop17" />
    </linearGradient>
    <linearGradient
       id="paint0_linear_201_2-0"
       x1="23"
       y1="0.99999899"
       x2="1"
       y2="12"
       gradientUnits="userSpaceOnUse">
      <stop
         stop-color="#444444"
         id="stop5-13" />
      <stop
         offset="1"
         id="stop6-11" />
    </linearGradient>
    <linearGradient
       id="paint1_linear_201_2-3"
       x1="21"
       y1="4"
       x2="3"
       y2="4"
       gradientUnits="userSpaceOnUse">
      <stop
         stop-opacity="0.5"
         id="stop7-9" />
      <stop
         offset="0.890123"
         id="stop8-0" />
      <stop
         offset="1"
         stop-opacity="0"
         id="stop9-8" />
    </linearGradient>
    <linearGradient
       id="paint2_linear_201_2-9"
       x1="12"
       y1="3"
       x2="11.5"
       y2="8"
       gradientUnits="userSpaceOnUse">
      <stop
         stop-color="#DDDDDD"
         id="stop10-2" />
      <stop
         offset="1"
         stop-color="#CCCCCC"
         stop-opacity="0"
         id="stop11-9" />
    </linearGradient>
    <linearGradient
       id="paint3_linear_201_2-1"
       x1="23"
       y1="9"
       x2="1.01236"
       y2="9.52141"
       gradientUnits="userSpaceOnUse">
      <stop
         stop-opacity="0.5"
         id="stop12-0" />
      <stop
         offset="1"
         id="stop13-6" />
    </linearGradient>
    <linearGradient
       id="paint4_linear_201_2-9"
       x1="23"
       y1="5.4000001"
       x2="1.42949"
       y2="23.511499"
       gradientUnits="userSpaceOnUse">
      <stop
         stop-color="#555555"
         id="stop14-28" />
      <stop
         offset="1"
         stop-color="#181818"
         id="stop15-47" />
    </linearGradient>
    <linearGradient
       id="paint5_linear_201_2-6"
       x1="15"
       y1="5.5"
       x2="5.5"
       y2="19.5"
       gradientUnits="userSpaceOnUse">
      <stop
         stop-color="#999999"
         id="stop16-2" />
      <stop
         offset="1"
         id="stop17-4" />
    </linearGradient>
    <linearGradient
       id="paint0_linear_201_2-0-8"
       x1="23"
       y1="0.99999899"
       x2="1"
       y2="12"
       gradientUnits="userSpaceOnUse">
      <stop
         stop-color="#444444"
         id="stop5-13-0" />
      <stop
         offset="1"
         id="stop6-11-5" />
    </linearGradient>
    <linearGradient
       id="paint1_linear_201_2-3-6"
       x1="21"
       y1="4"
       x2="3"
       y2="4"
       gradientUnits="userSpaceOnUse">
      <stop
         stop-opacity="0.5"
         id="stop7-9-6" />
      <stop
         offset="0.890123"
         id="stop8-0-4" />
      <stop
         offset="1"
         stop-opacity="0"
         id="stop9-8-0" />
    </linearGradient>
    <linearGradient
       id="paint2_linear_201_2-9-0"
       x1="12"
       y1="3"
       x2="11.5"
       y2="8"
       gradientUnits="userSpaceOnUse">
      <stop
         stop-color="#DDDDDD"
         id="stop10-2-4" />
      <stop
         offset="1"
         stop-color="#CCCCCC"
         stop-opacity="0"
         id="stop11-9-6" />
    </linearGradient>
    <linearGradient
       id="paint3_linear_201_2-1-2"
       x1="23"
       y1="9"
       x2="1.01236"
       y2="9.52141"
       gradientUnits="userSpaceOnUse">
      <stop
         stop-opacity="0.5"
         id="stop12-0-6" />
      <stop
         offset="1"
         id="stop13-6-7" />
    </linearGradient>
    <linearGradient
       id="paint4_linear_201_2-9-5"
       x1="23"
       y1="5.4000001"
       x2="1.42949"
       y2="23.511499"
       gradientUnits="userSpaceOnUse">
      <stop
         stop-color="#555555"
         id="stop14-28-6" />
      <stop
         offset="1"
         stop-color="#181818"
         id="stop15-47-9" />
    </linearGradient>
    <linearGradient
       id="paint5_linear_201_2-6-8"
       x1="15"
       y1="5.5"
       x2="5.5"
       y2="19.5"
       gradientUnits="userSpaceOnUse">
      <stop
         stop-color="#999999"
         id="stop16-2-7" />
      <stop
         offset="1"
         id="stop17-4-2" />
    </linearGradient>
    <linearGradient
       id="paint0_linear_201_2-0-7"
       x1="23"
       y1="0.99999899"
       x2="1"
       y2="12"
       gradientUnits="userSpaceOnUse"
       gradientTransform="matrix(0.26457812,0,0,0.26457812,-8.017598,1.5868163)">
      <stop
         stop-color="#444444"
         id="stop5-13-6" />
      <stop
         offset="1"
         id="stop6-11-1" />
    </linearGradient>
    <linearGradient
       id="paint1_linear_201_2-3-3"
       x1="21"
       y1="4"
       x2="3"
       y2="4"
       gradientUnits="userSpaceOnUse"
       gradientTransform="matrix(0.26457812,0,0,0.26457812,-8.017598,1.5868163)">
      <stop
         stop-opacity="0.5"
         id="stop7-9-2" />
      <stop
         offset="0.890123"
         id="stop8-0-1" />
      <stop
         offset="1"
         stop-opacity="0"
         id="stop9-8-5" />
    </linearGradient>
    <linearGradient
       id="paint2_linear_201_2-9-9"
       x1="12"
       y1="3"
       x2="11.5"
       y2="8"
       gradientUnits="userSpaceOnUse"
       gradientTransform="matrix(0.26457812,0,0,0.26457812,-8.017598,1.5868163)">
      <stop
         stop-color="#DDDDDD"
         id="stop10-2-9" />
      <stop
         offset="1"
         stop-color="#CCCCCC"
         stop-opacity="0"
         id="stop11-9-1" />
    </linearGradient>
    <linearGradient
       id="paint3_linear_201_2-1-4"
       x1="23"
       y1="9"
       x2="1.01236"
       y2="9.52141"
       gradientUnits="userSpaceOnUse"
       gradientTransform="matrix(0.26457812,0,0,0.26457812,-8.017598,1.5868163)">
      <stop
         stop-opacity="0.5"
         id="stop12-0-9" />
      <stop
         offset="1"
         id="stop13-6-1" />
    </linearGradient>
    <linearGradient
       id="paint4_linear_201_2-9-0"
       x1="23"
       y1="5.4000001"
       x2="1.42949"
       y2="23.511499"
       gradientUnits="userSpaceOnUse"
       gradientTransform="matrix(0.26457812,0,0,0.26457812,-8.017598,1.5868163)">
      <stop
         stop-color="#555555"
         id="stop14-28-7" />
      <stop
         offset="1"
         stop-color="#181818"
         id="stop15-47-5" />
    </linearGradient>
    <linearGradient
       id="paint5_linear_201_2-6-87"
       x1="15"
       y1="5.5"
       x2="5.5"
       y2="19.5"
       gradientUnits="userSpaceOnUse"
       gradientTransform="matrix(0.26457812,0,0,0.26457812,-8.017598,1.5868163)">
      <stop
         stop-color="#999999"
         id="stop16-2-0" />
      <stop
         offset="1"
         id="stop17-4-4" />
    </linearGradient>
    <linearGradient
       id="paint0_linear_201_2-5"
       x1="23"
       y1="0.99999899"
       x2="1"
       y2="12"
       gradientUnits="userSpaceOnUse"
       gradientTransform="matrix(0.26457812,0,0,0.26457812,-8.017598,1.5868163)">
      <stop
         stop-color="#444444"
         id="stop5-13-5" />
      <stop
         offset="1"
         id="stop6-11-2" />
    </linearGradient>
    <linearGradient
       id="paint1_linear_201_2-9"
       x1="21"
       y1="4"
       x2="3"
       y2="4"
       gradientUnits="userSpaceOnUse"
       gradientTransform="matrix(0.26457812,0,0,0.26457812,-8.017598,1.5868163)">
      <stop
         stop-opacity="0.5"
         id="stop7-9-0" />
      <stop
         offset="0.890123"
         id="stop8-0-2" />
      <stop
         offset="1"
         stop-opacity="0"
         id="stop9-8-8" />
    </linearGradient>
    <linearGradient
       id="paint2_linear_201_2-3"
       x1="12"
       y1="3"
       x2="11.5"
       y2="8"
       gradientUnits="userSpaceOnUse"
       gradientTransform="matrix(0.26457812,0,0,0.26457812,-8.017598,1.5868163)">
      <stop
         stop-color="#DDDDDD"
         id="stop10-2-8" />
      <stop
         offset="1"
         stop-color="#CCCCCC"
         stop-opacity="0"
         id="stop11-9-0" />
    </linearGradient>
    <linearGradient
       id="paint3_linear_201_2-4"
       x1="23"
       y1="9"
       x2="1.01236"
       y2="9.52141"
       gradientUnits="userSpaceOnUse"
       gradientTransform="matrix(0.26457812,0,0,0.26457812,-8.017598,1.5868163)">
      <stop
         stop-opacity="0.5"
         id="stop12-0-0" />
      <stop
         offset="1"
         id="stop13-6-9" />
    </linearGradient>
    <linearGradient
       id="paint4_linear_201_2-1"
       x1="23"
       y1="5.4000001"
       x2="1.42949"
       y2="23.511499"
       gradientUnits="userSpaceOnUse"
       gradientTransform="matrix(0.26457812,0,0,0.26457812,-8.017598,1.5868163)">
      <stop
         stop-color="#555555"
         id="stop14-28-9" />
      <stop
         offset="1"
         stop-color="#181818"
         id="stop15-47-6" />
    </linearGradient>
    <linearGradient
       id="paint5_linear_201_2-2"
       x1="15"
       y1="5.5"
       x2="5.5"
       y2="19.5"
       gradientUnits="userSpaceOnUse"
       gradientTransform="matrix(0.26457812,0,0,0.26457812,-8.017598,1.5868163)">
      <stop
         stop-color="#999999"
         id="stop16-2-5" />
      <stop
         offset="1"
         id="stop17-4-44" />
    </linearGradient>
    <linearGradient
       id="paint0_linear_201_2-0-4"
       x1="23"
       y1="0.99999899"
       x2="1"
       y2="12"
       gradientUnits="userSpaceOnUse"
       gradientTransform="matrix(0.26457812,0,0,0.26457812,-8.017598,1.5868163)">
      <stop
         stop-color="#444444"
         id="stop5-13-9" />
      <stop
         offset="1"
         id="stop6-11-9" />
    </linearGradient>
    <linearGradient
       id="paint1_linear_201_2-3-4"
       x1="21"
       y1="4"
       x2="3"
       y2="4"
       gradientUnits="userSpaceOnUse"
       gradientTransform="matrix(0.26457812,0,0,0.26457812,-8.017598,1.5868163)">
      <stop
         stop-opacity="0.5"
         id="stop7-9-5" />
      <stop
         offset="0.890123"
         id="stop8-0-9" />
      <stop
         offset="1"
         stop-opacity="0"
         id="stop9-8-3" />
    </linearGradient>
    <linearGradient
       id="paint2_linear_201_2-9-5"
       x1="12"
       y1="3"
       x2="11.5"
       y2="8"
       gradientUnits="userSpaceOnUse"
       gradientTransform="matrix(0.26457812,0,0,0.26457812,-8.017598,1.5868163)">
      <stop
         stop-color="#DDDDDD"
         id="stop10-2-7" />
      <stop
         offset="1"
         stop-color="#CCCCCC"
         stop-opacity="0"
         id="stop11-9-08" />
    </linearGradient>
    <linearGradient
       id="paint3_linear_201_2-1-1"
       x1="23"
       y1="9"
       x2="1.01236"
       y2="9.52141"
       gradientUnits="userSpaceOnUse"
       gradientTransform="matrix(0.26457812,0,0,0.26457812,-8.017598,1.5868163)">
      <stop
         stop-opacity="0.5"
         id="stop12-0-99" />
      <stop
         offset="1"
         id="stop13-6-78" />
    </linearGradient>
    <linearGradient
       id="paint4_linear_201_2-9-2"
       x1="23"
       y1="5.4000001"
       x2="1.42949"
       y2="23.511499"
       gradientUnits="userSpaceOnUse"
       gradientTransform="matrix(0.26457812,0,0,0.26457812,-8.017598,1.5868163)">
      <stop
         stop-color="#555555"
         id="stop14-28-5" />
      <stop
         offset="1"
         stop-color="#181818"
         id="stop15-47-3" />
    </linearGradient>
    <linearGradient
       id="paint5_linear_201_2-6-4"
       x1="15"
       y1="5.5"
       x2="5.5"
       y2="19.5"
       gradientUnits="userSpaceOnUse"
       gradientTransform="matrix(0.26457812,0,0,0.26457812,-8.017598,1.5868163)">
      <stop
         stop-color="#999999"
         id="stop16-2-9" />
      <stop
         offset="1"
         id="stop17-4-0" />
    </linearGradient>
  </defs>
  <rect
     opacity="0.8125"
     x="1.0000008"
     y="0.99999964"
     width="22"
     height="22"
     rx="6.5999999"
     fill="url(#paint0_linear_201_2)"
     id="rect1-0"
     style="fill:url(#paint0_linear_201_2-0-8);stroke-width:1" />
  <rect
     opacity="0.125"
     x="3.0000007"
     y="2.2499993"
     width="18"
     height="18"
     rx="4.4000001"
     fill="url(#paint1_linear_201_2)"
     fill-opacity="0.875"
     id="rect2-3"
     style="fill:url(#paint1_linear_201_2-3-6);stroke-width:1" />
  <rect
     x="3.2500005"
     y="3.2499993"
     width="17.5"
     height="17.5"
     rx="4.1500001"
     fill="#cccccc"
     stroke="url(#paint2_linear_201_2)"
     stroke-width="0.5"
     id="rect3-4"
     style="stroke:url(#paint2_linear_201_2-9-0)" />
  <path
     opacity="0.125"
     d="m 1.0000005,7.5078098 c 0,-1.6611703 1.34664,-3.0078103 3.0078099,-3.0078103 h 4.1826701 c 1.0745201,0 2.1163205,0.3699399 2.9501195,1.0476202 v 0 c 0.8339,0.67768 1.8756,1.0476199 2.950201,1.0476199 H 19.9922 c 1.661201,0 3.007801,1.3466401 3.007801,3.0078099 V 15.5 c 0,3.6451 -2.954901,6.6 -6.6,6.6 H 7.6000005 c -3.64508,0 -6.6,-2.9549 -6.6,-6.6 z"
     fill="url(#paint3_linear_201_2)"
     fill-opacity="0.875"
     id="path3-9"
     style="fill:url(#paint3_linear_201_2-1-2);stroke-width:1" />
  <path
     d="m 1.0000005,8.4078097 c 0,-1.6611702 1.34664,-3.0078103 3.0078099,-3.0078103 h 4.1826701 c 1.0745201,0 2.1163205,0.3699399 2.9501195,1.0476203 v 0 c 0.8339,0.67768 1.8756,1.0476199 2.950201,1.0476199 H 19.9922 c 1.661201,0 3.007801,1.34664 3.007801,3.0078604 V 16.4 c 0,3.6451 -2.954901,6.6 -6.6,6.6 H 7.6000005 c -3.64508,0 -6.6,-2.9549 -6.6,-6.6 z"
     fill="url(#paint4_linear_201_2)"
     id="path4-3"
     style="opacity:0.875;fill:url(#paint4_linear_201_2-9-5);stroke-width:1" />
  <path
     d="M 22.625001,10.5031 V 16.4 c 0,3.437999 -2.787001,6.225 -6.225,6.225 H 7.6000005 c -3.4379699,0 -6.225,-2.787001 -6.225,-6.225 V 8.4078097 c 0,-1.4540601 1.1787501,-2.6328103 2.6328099,-2.6328103 h 4.1826701 c 0.9883799,0 1.9466205,0.3402814 2.7136205,0.9636304 0.900699,0.7320098 2.025999,1.1316098 3.1867,1.1316098 H 19.9922 c 1.454,0 2.632801,1.1787501 2.632801,2.6328604 z"
     stroke="url(#paint5_linear_201_2)"
     stroke-opacity="0.375"
     stroke-width="0.750002"
     stroke-linejoin="round"
     id="path5-3"
     style="opacity:0.875;fill:none;stroke:url(#paint5_linear_201_2-6-8)" />
</svg>

<svg xmlns="http://www.w3.org/2000/svg" width="24" height="24" fill="none"><defs><linearGradient id="a" x1="23" x2="1" y1="1" y2="12" gradientUnits="userSpaceOnUse"><stop stop-color="#444"/><stop offset="1"/></linearGradient><linearGradient id="c" x1="21" x2="3" y1="4" y2="4" gradientUnits="userSpaceOnUse"><stop stop-opacity=".5"/><stop offset=".89"/><stop offset="1" stop-opacity="0"/></linearGradient><linearGradient id="e" x1="12" x2="11.5" y1="3" y2="8" gradientUnits="userSpaceOnUse"><stop stop-color="#DDD"/><stop offset="1" stop-color="#CCC" stop-opacity="0"/></linearGradient><linearGradient id="g" x1="23" x2="1.012" y1="9" y2="9.521" gradientUnits="userSpaceOnUse"><stop stop-opacity=".5"/><stop offset="1"/></linearGradient><linearGradient id="i" x1="23" x2="1.429" y1="5.4" y2="23.512" gradientUnits="userSpaceOnUse"><stop stop-color="#555"/><stop offset="1" stop-color="#181818"/></linearGradient><linearGradient id="k" x1="15" x2="5.5" y1="5.5" y2="19.5" gradientUnits="userSpaceOnUse"><stop stop-color="#999"/><stop offset="1"/></linearGradient><linearGradient id="b" x1="23" x2="1" y1="1" y2="12" gradientUnits="userSpaceOnUse"><stop stop-color="#444"/><stop offset="1"/></linearGradient><linearGradient id="d" x1="21" x2="3" y1="4" y2="4" gradientUnits="userSpaceOnUse"><stop stop-opacity=".5"/><stop offset=".89"/><stop offset="1" stop-opacity="0"/></linearGradient><linearGradient id="f" x1="12" x2="11.5" y1="3" y2="8" gradientUnits="userSpaceOnUse"><stop stop-color="#DDD"/><stop offset="1" stop-color="#CCC" stop-opacity="0"/></linearGradient><linearGradient id="h" x1="23" x2="1.012" y1="9" y2="9.521" gradientUnits="userSpaceOnUse"><stop stop-opacity=".5"/><stop offset="1"/></linearGradient><linearGradient id="j" x1="23" x2="1.429" y1="5.4" y2="23.511" gradientUnits="userSpaceOnUse"><stop stop-color="#555"/><stop offset="1" stop-color="#181818"/></linearGradient><linearGradient id="l" x1="15" x2="5.5" y1="5.5" y2="19.5" gradientUnits="userSpaceOnUse"><stop stop-color="#999"/><stop offset="1"/></linearGradient></defs><rect width="22" height="22" x="1" y="1" fill="url(#a)" opacity=".813" rx="6.6" style="fill:url(#b);stroke-width:1"/><rect width="18" height="18" x="3" y="2.25" fill="url(#c)" fill-opacity=".875" opacity=".125" rx="4.4" style="fill:url(#d);stroke-width:1"/><rect width="17.5" height="17.5" x="3.25" y="3.25" fill="#ccc" stroke="url(#e)" stroke-width=".5" rx="4.15" style="stroke:url(#f)"/><path fill="url(#g)" fill-opacity=".875" d="M1 7.508A3.008 3.008 0 0 1 4.008 4.5H8.19c1.075 0 2.117.37 2.95 1.048a4.678 4.678 0 0 0 2.95 1.047h5.902A3.008 3.008 0 0 1 23 9.603V15.5a6.6 6.6 0 0 1-6.6 6.6H7.6A6.6 6.6 0 0 1 1 15.5z" opacity=".125" style="fill:url(#h);stroke-width:1"/><path fill="url(#i)" d="M1 8.408A3.008 3.008 0 0 1 4.008 5.4H8.19c1.075 0 2.117.37 2.95 1.048a4.678 4.678 0 0 0 2.95 1.047h5.902A3.008 3.008 0 0 1 23 10.503V16.4a6.6 6.6 0 0 1-6.6 6.6H7.6A6.6 6.6 0 0 1 1 16.4z" style="opacity:.875;fill:url(#j);stroke-width:1"/><path stroke="url(#k)" stroke-linejoin="round" stroke-opacity=".375" stroke-width=".75" d="M22.625 10.503V16.4a6.225 6.225 0 0 1-6.225 6.225H7.6A6.225 6.225 0 0 1 1.375 16.4V8.408a2.633 2.633 0 0 1 2.633-2.633H8.19c.989 0 1.947.34 2.714.964a5.053 5.053 0 0 0 3.187 1.131h5.901a2.633 2.633 0 0 1 2.633 2.633z" style="opacity:.875;fill:none;stroke:url(#l)"/></svg>
